symbols/web/monetization_on/materialsymbolsoutlined/monetization_on_wght700grad200fill1_48px.svg

<svg xmlns="http://www.w3.org/2000/svg" height="48" width="48"><path d="M22.3 38.25h3.25V35.9q2.9-.25 4.675-1.775T32 29.8q0-2.55-1.525-4.3T25.4 22.35q-2.8-1.2-4.025-2.15-1.225-.95-1.225-2.5 0-1.25 1-2.075 1-.825 2.75-.825 1.55 0 2.625.675T28.35 17.7l2.85-1.3q-1-2.15-2.325-3.075-1.325-.925-3.225-1.275V9.8H22.4v2.25q-2.7.5-4.1 2.075-1.4 1.575-1.4 3.775 0 2.6 1.65 4.175 1.65 1.575 5.1 2.875 2.85 1.2 3.975 2.25t1.125 2.6q0 1.5-1.2 2.4-1.2.9-3.25.9-1.9 0-3.35-1.125-1.45-1.125-2-3.075l-3 1q1 2.55 2.65 3.95 1.65 1.4 3.7 1.9Zm1.7 6.8q-4.35 0-8.2-1.625-3.85-1.625-6.725-4.5Q6.2 36.05 4.575 32.2 2.95 28.35 2.95 24t1.625-8.2q1.625-3.85 4.5-6.725Q11.95 6.2 15.8 4.55q3.85-1.65 8.15-1.65 4.4 0 8.275 1.65t6.725 4.5q2.85 2.85 4.5 6.725 1.65 3.875 1.65 8.275 0 4.3-1.65 8.15-1.65 3.85-4.525 6.725-2.875 2.875-6.725 4.5-3.85 1.625-8.2 1.625Z"/></svg>

<svg xmlns="http://www.w3.org/2000/svg" height="48" width="48"><path d="M24.05 45.05Q19.6 45.05 15.7 43.45Q11.8 41.85 8.975 39.025Q6.15 36.2 4.55 32.3Q2.95 28.4 2.95 23.95Q2.95 19.55 4.55 15.7Q6.15 11.85 8.975 9Q11.8 6.15 15.7 4.525Q19.6 2.9 24.05 2.9Q28.45 2.9 32.3 4.525Q36.15 6.15 39 8.975Q41.85 11.8 43.475 15.675Q45.1 19.55 45.1 24Q45.1 28.4 43.475 32.3Q41.85 36.2 39 39.025Q36.15 41.85 32.3 43.45Q28.45 45.05 24.05 45.05ZM22.3 38.25H25.55V35.9Q28.45 35.65 30.225 33.975Q32 32.3 32 29.45Q32 26.75 30.5 25.1Q29 23.45 25.45 22.35Q22.3 21.3 21.225 20.3Q20.15 19.3 20.15 17.7Q20.15 16.4 21.15 15.6Q22.15 14.8 23.9 14.8Q25.4 14.8 26.5 15.475Q27.6 16.15 28.35 17.7L31.2 16.4Q30.2 14.25 28.875 13.325Q27.55 12.4 25.65 12.05V9.8H22.4V12.05Q19.7 12.55 18.3 14.1Q16.9 15.65 16.9 17.85Q16.9 20.45 18.325 21.975Q19.75 23.5 23.65 24.95Q26.7 26.1 27.725 26.975Q28.75 27.85 28.75 29.45Q28.75 30.95 27.525 32.025Q26.3 33.1 24.3 33.1Q22.4 33.1 20.95 31.975Q19.5 30.85 18.95 28.9L15.95 29.9Q16.95 32.45 18.6 33.85Q20.25 35.25 22.3 35.8Z"/></svg>
